X:1
T:Tis Sweet to Muse o'er Memory's Page (Anonymous)
T:Tis Sweet to Muse o'er Memory's Page (Anonymous)
T:by IMSLP - Pubblico dominio
T:by IMSLP - Pubblico dominio
Z:by IMSLP - Pubblico dominio
%%score 1 2 { 3 | 4 }
L:1/8
Q:1/4=100
M:4/4
K:G
V:1 treble nm="Voice"
V:2 treble nm="Voice"
V:3 treble nm="Harp\nor  \nPiano"
V:4 bass 
V:1
"^Moderato" z | z8 | z8 | z8 | z8 | z8 | z8 | z8 | z4 z2 ||"^(2 . V.)""^d" D2 | G2 G2 A2 A2 | %11
w: |||||||||'Tis|sweet to muse o'er|
w: |||||||||Then|time stole by with|
 B2 G2 G2 D2 | F2 F2 G2 G2 | F2 G2 A3 D | G2 G2 A2 A2 | [GB]3 [Ac] [GB]3 D | %16
w: mem'\-\- ry's page E'en|should we trace each|line with tears, Or|smile as it re\-\-|cords the age Of|
w: foot\-\- steps light And|scat\-\- ter'd ro\-\- ses|as he fled, To|thorn\- less, sweet, and|Heav'n\-\- ly bright! A|
 [CE]2 [Ec]2 [DB]2 [CA]2 | [B,G]2 [A,F]2 [B,G]3 A | F2 D2 D2 A2 | B2 G2 G2 B2 | %20
w: hap\-\- py child\-\- hood|void of cares, When|hearts were blythe\- some,|warm and true, Not|
w: ra\-\- diance o'er Life's|path they shed. There|are who'd taste of|Le\-\- the's stream, Not|
 [Ac]2 [GB]2 [FA]2 [EG]2 | F2 d2 ([Bd][Ac][GB]/) z/ [FA] | G2 G2 A2 A2 | %23
w: sul\-\- lied by a|world\-\- ly feel- * ing But|pure as drops of|
w: so would I! I|love the past! * * And|grief or joy be|
 [GB]2 [Ac]2 !fermata![GB]2 D2 | [CE]2 [Ec]2 [DB]2 [CA]2 | (G2 BA) G2 || z2 | z8 | z8 | z8 | z8 :| %31
w: crys\- tal dew, O'er|vio\- let blos\- soms|steal\- _ _ ing.||||||
w: Mem\-' ry's theme, I'll|woo her poe\-\- sy|to the * last!||||||
V:2
 z | z8 | z8 | z8 | z8 | z8 | z8 | z8 | z4 z2 || D2 | G2 G2 A2 A2 | B2 G2 G2 D2 | F2 F2 G2 G2 | %13
 F2 G2 A3 D | G2 G2 A2 A2 | [GB]3 [Ac] [GB]3 D | [CE]2 [Ec]2 [DB]2 [CA]2 | [B,G]2 [A,F]2 [B,G]3 A | %18
 F2 D2 D2 A2 | B2 G2 G2 B2 | [Ac]2 [GB]2 [FA]2 [EG]2 | F2 d2 ([Bd] [Ac] [GB]/) z/ [FA] | %22
 G2 G2 A2 A2 | [GB]2 [Ac]2 !fermata![GB]2 D2 | [CE]2 [Ec]2 [DB]2 [CA]2 | (G2 B A) G2 || z2 | z8 | %28
 z8 | z8 | z8 :| %31
V:3
 D | [B,G]2 [B,G]2 [CA]2 [CA]2 | [DB]2 [B,G]2 [B,G]3 D | [A,F]2 [A,F]2 [B,G]2 [B,G]2 | %4
 [A,F]2 [B,G]2 [CA]3 D | [B,G]2 [B,G]2 [CA]2 [CA]2 | ([GB]D[GB][Ac]) [Bd]2 D2 | %7
 [CE]2 [Ec]2 [DB]2 [CA]2 | [B,DG]B[A,CF]A [B,DG]2 || D2 | [B,G]2 D2 [A,F]2 C2 | %11
 [B,G]2 D2 [B,G]2 D2 | [A,F]2 C2 [B,G]2 D2 | [A,CF]2 [B,DG]2 [CA]3 z | [B,G]2 D2 [A,F]2 C2 | %15
 [B,G]3 D [B,G]3 D | [CE]2 !arpeggio![CEGc]2 ([B,D]B) ([A,C]G) | [B,DG]2 [A,CF]2 [B,DG]3 z | %18
 [A,F]C[A,F]C [A,F]C[A,F]C | [B,G]D[B,G]D [B,G]D[B,G]D | [Ac][Ac][GB][GB] [FA][FA][EG][EG] | %21
 [DF]2{DFA} d2 ([Fd][Ec][GB]/) z/ [FA] | [B,G]D[B,G]D [A,F]C[A,F]C | %23
 [GB]D[Ac]D !arpeggio![DGB]2 D2 | z [CE] z [EGc] z [DGB] z [CFA] | [B,G]D[A,F]C [B,G]2 || D2 | %27
 (GBdg) f2 a2 |{dfa} c'afd g4 |!8va(!({f} gbd'g') f'2 a'2 |{c'} d'c''a'f' g'4!8va)! :| %31
V:4
 z | (G,,B,,D,G,) (D,,F,,A,,D,) | (G,,B,,D,G,) (G,,B,,D,G,) | (D,,F,,A,,D,) (G,,B,,D,G,) | %4
 ((D,,F,,A,,D,)) ((D,,F,,A,,D,)) | (G,,B,,D,G,) (C,,F,,A,,D,) | (F,,B,,D,G,) (F,,B,,D,G,) | %7
 C,,C,C,,C, C,,D,C,,D, | (G,2 D,2 A,,2) || z2 | !arpeggio![G,,B,,D,G,]4 !arpeggio![D,,F,,A,,D,]4 | %11
 !arpeggio![G,,B,,D,G,]4 !arpeggio![G,,B,,D,G,]4 | %12
 !arpeggio![D,,F,,A,,D,]4 !arpeggio![G,,B,,D,G,]4 | %13
 [D,,F,,A,,D,]2 !arpeggio![G,,B,,D,G,]2 [D,,D,][D,,D,][E,,E,][F,,F,] | %14
 !arpeggio![G,,B,,D,G,]4 !arpeggio![D,,F,,A,,D,]4 | %15
 !arpeggio![G,,B,,D,G,]4 !arpeggio![G,,B,,D,G,]4 | C,2 C,2 (D,2 D,,2) | (G,,2 D,2"^dolce" G,3) z | %18
 [C,,D,]4 [C,,D,]4 | [G,,G,]4 [G,,G,]4 | ([D,F,A,C]2 [D,G,B,]2 [D,F,A,]2 [E,G,]2) | %21
 [C,,D,]4 [C,,D,]2 z [E,,D,] | [G,,G,]2 [G,,G,]2 [B,,,D,]2 [B,,,D,]2 | %23
 [G,,G,]2 [B,,,D,]2 !arpeggio![G,,B,,D,G,]4 | [C,,C,]2 [C,,C,]2 (D,2 D,,2) | (G,2 D,2 G,,2) || z2 | %27
 [G,B,]D,[G,B,]D, [F,A,C]D,[F,A,C]D, | [F,A,C]D,[F,A,C]D, [G,B,]D,[G,B,]D, | %29
 [G,B,]D,[G,B,]D, [F,A,C]D,[F,A,C]D, | [F,A,C]D,[F,A,C]D, [G,B,]4 :| %31

